X: 5
T: The Dusty Miller
R: slip jig
M: 9/8
L: 1/8
K: Gmaj
|: B2c d2B A2G | F2G A2B c2A | B2c d2B A2G | D2G B2A G3 :||: Bcd e2f g2z | B2d g2e dBA | B2d e2f g2z | D2G B2A G3 :|


Tune 28	Setting 12418

